X:251
T:Speed the plough
R:Reel
O:England
M:4/4
Q:1/2=110
K:G
|:"G"GABc dedB|dgdB dedB|"C"c2ec "G"B2dB|"D"A2A2A2z2|"G"GABc dedB|
dgdB dedB|"Am"cdec "Em"BcdB|"D"A2A2"G"G4::\
"G"g2g2g2z2|g2fe dBG2|"C"c2ec "G"B2dB|
"D"A2A2A2z2|"G"g2g2g2z2|g2fe dBG2|"Am"cdec "Em"BcdB|"D"A2A2"G"G4:|
